static/images/icons/datocms.svg

<svg fill="none" height="50" viewBox="0 0 50 50" width="50" xmlns="http://www.w3.org/2000/svg" xmlns:xlink="http://www.w3.org/1999/xlink"><linearGradient id="a" gradientUnits="userSpaceOnUse" x1="4" x2="47" y1="24.5003" y2="24.5003"><stop offset="0" stop-color="#ff593d"/><stop offset="1" stop-color="#ff7751"/></linearGradient><path d="m25.5003 48h-21.5003v-47h21.5003c10.7528 0 21.4997 10.5219 21.4997 23.4967s-10.7469 23.5033-21.4997 23.5033zm0-34.1783c-1.9447.0008-3.8455.6279-5.462 1.8019-1.6166 1.1741-2.8762 2.8423-3.6198 4.7939-.7435 1.9515-.9375 4.0987-.5574 6.1699.3801 2.0713 1.3172 3.9737 2.6928 5.4665 1.3756 1.4929 3.1279 2.5093 5.0354 2.9206 1.9074.4113 3.8843.199 5.6807-.6099s3.3316-2.1781 4.4115-3.9346c1.0798-1.7565 1.6559-3.8213 1.6552-5.9333.0001-1.4025-.2543-2.7913-.7487-4.087s-1.2191-2.4729-2.1326-3.4643c-.9135-.9913-1.9979-1.7775-3.1913-2.3135s-2.4724-.8113-3.7638-.8102z" fill="url(#a)"/></svg>

<svg width="50" height="50" viewBox="0 0 50 50" fill="none" xmlns="http://www.w3.org/2000/svg">
<path d="M25.5003 48H4V1H25.5003C36.2531 1 47 11.5219 47 24.4967C47 37.4715 36.2531 48 25.5003 48ZM25.5003 13.8217C23.5556 13.8225 21.6548 14.4496 20.0383 15.6236C18.4217 16.7977 17.1621 18.4659 16.4185 20.4175C15.675 22.369 15.481 24.5162 15.8611 26.5874C16.2412 28.6587 17.1783 30.5611 18.5539 32.0539C19.9295 33.5468 21.6818 34.5632 23.5893 34.9745C25.4967 35.3858 27.4736 35.1735 29.27 34.3646C31.0664 33.5557 32.6016 32.1865 33.6815 30.43C34.7613 28.6735 35.3374 26.6087 35.3367 24.4967C35.3368 23.0942 35.0824 21.7054 34.588 20.4097C34.0936 19.114 33.3689 17.9368 32.4554 16.9454C31.5419 15.9541 30.4575 15.1679 29.2641 14.6319C28.0707 14.0959 26.7917 13.8206 25.5003 13.8217Z" fill="url(#paint0_linear)"/>
<defs>
<linearGradient id="paint0_linear" x1="4" y1="24.5003" x2="47" y2="24.5003" gradientUnits="userSpaceOnUse">
<stop stop-color="#FF593D"/>
<stop offset="1" stop-color="#FF7751"/>
</linearGradient>
</defs>
</svg>
